X:154
%%etbk:tnset id:53,pos:2,rep:3x,ant:
%%etbk:tnset id:183,pos:7,rep:3x,ant:
%%etbk:wsite http://www.thesession.org/tunes/display/114
%%etbk:pldat 2016-06-23T18:53,2016-06-22T15:48,2016-06-21T15:26,2016-05-05T15:26,2016-05-03T17:24,2016-03-11T16:36,2016-03-09T16:37,2016-03-08T17:13,2016-03-05T15:50,2016-02-27T14:53,2016-02-16T17:08,2016-02-07T14:56,2015-11-03T15:19,2015-10-28T15:47,2015-10-25T13:52,2015-10-22T18:21,2015-10-06T16:59,2015-09-29T16:15,2015-06-23T18:07,2015-06-18T18:48,2015-06-10T16:30,2015-05-27T18:17,2015-03-13T19:03,2015-03-11T16:34,2015-03-05T18:49,2015-02-22T16:28,2015-02-17T17:21,2015-02-04T16:43,2015-01-27T15:50,2014-11-06T18:20,2014-11-04T16:09,2014-11-02T15:33,2014-10-29T15:49,2014-10-27T19:10,2014-10-20T18:09,2014-10-11T15:15,2014-08-21T18:06,2014-08-18T18:29,2014-08-02T16:10,2014-07-30T18:11,2014-07-29T17:51,2014-06-23T18:31,2014-06-07T15:14,2014-06-03T15:40,2014-03-06T18:21,2014-03-03T18:26,2014-02-27T18:13,2014-02-18T16:23,2013-10-30T17:18,2013-10-29T16:04,2013-10-27T14:50,2013-10-24T18:36,2013-10-18T15:42,2013-10-16T16:06,2013-10-13T15:10,2013-10-08T15:36
T: Teetotaler's, The
Z: Piano Box Version by Martin Fleischmann
H: Created 2013-02-19 /  Last Modified 2013-02-19
M: 4/4
L: 1/8
R: reel
K: Gmaj
|: "G"!3!G3F !1!GAB!4!c | !2!d!1!B!5!g!3!e !2!d!1!B!2!A!4!c | "em"!3!B!1!E!1!E!2!D !1!EFGA | "D"!5!BG!4!A!2!F !4!GFED |
"G"!3!G2GF !1!GAB!4!c | !2!d!1!B!5!g!3!e !2!d!1!B!2!A!4!c | "em"!3!B!1!EE!2!D !1!EFGA | "D"!5!BG!4!A!2!F "G"!3!G4:|
|: "em"!1!B!2!e!2!e!1!d !2!e{g}eef | !4!geaf !4!gfe!1!d | "D"!2!B!4!dd!3!^c !1!d2de | !3!fdf!5!a !4!gfe!1!d |
"em"!2!B!5!e!2!e!1!d !2!e{g}eef | !4!geaf !4!gfe!1!d | !2!B2!1!E!2!D !1!EFGA | "D"!5!BG!4!A!2!F "G"!3!G4:|


